/* XPM */
static char *_23e07cf2a9146038fcfbd537e5dde13jjMn7fTDZK6zl8Ep[] = {
/* columns rows colors chars-per-pixel */
"50 300 4 1 ",
"  c #A66D4E",
". c #FFC90E",
"X c black",
"o c white",
/* pixels */
"                                                  ",
"                                                  ",
"                                                  ",
"                                 ...........      ",
"                               ...         ....   ",
"                              ..              .   ",
"                                               .  ",
"                                               .  ",
"                                               .  ",
"                                              ..  ",
"                                  ..         ..   ",
"                                   .        ..    ",
"                                   ..     ...     ",
"                                    ..  ...       ",
"                                     . .. ...     ",
"                                     ...    ...   ",
"                                      .       ..  ",
"                                      .         ..",
"                             ..       .          .",
"                            ..   .......          ",
"                            .         ..          ",
"                    .       .         ...         ",
"                   ..      ..         . .         ",
"                  ..  .... .          ...         ",
"                  .      ...           ...        ",
"                  .        .           .          ",
"                  .        ..          .          ",
"                  .        ..          .          ",
"                  .        ..          .          ",
"    .             .        ....       ..          ",
"    .......       .        .  .........           ",
"    .     ...     .       ..                      ",
"    .       ..    .       .                       ",
"    .        ..   ...   ...                       ",
"    ..        ..    .....                         ",
"     .         .                                  ",
"     .         .                                  ",
"     .        ..                                  ",
"     .      ...                                   ",
"     ..    ..                                     ",
"      .  ..                                       ",
"      .  .                                        ",
"      .                                           ",
"      .                                           ",
"                                                  ",
"                                                  ",
"                                                  ",
"                                                  ",
"                                                  ",
"                                                  ",
"                                                  ",
"                                                  ",
"                                                  ",
"                                 ...........      ",
"                               ...         ....   ",
"                              ..              .   ",
"                                               .  ",
"                                               .  ",
"                                               .  ",
"                                              ..  ",
"                                  ..         ..   ",
"                                   .        ..    ",
"                                   ..     ...     ",
"                                    ..  ...       ",
"                                     . .. ...     ",
"                                     ...    ...   ",
"                                      .       ..  ",
"                                      .         ..",
"                             ..       .          .",
"                            ..   .......          ",
"                      XX    .         ..          ",
"                    . XX    .         ...         ",
"                   .. XX   ..         . .         ",
"                  ..  XXXX .          ...         ",
"                  .     XX..           ...        ",
"                  .      XX.           .          ",
"                  .      XX..          .          ",
"                  .      XX..          .          ",
"                  .      XX..          .          ",
"    .             .        ....       ..          ",
"    .......       .        .  .........           ",
"    .     ...     .       ..                      ",
"    .       ..    .       .                       ",
"    .        ..   ...   ...                       ",
"    ..        ..    .....                         ",
"     .         .                                  ",
"     .         .                                  ",
"     .        ..                                  ",
"     .      ...                                   ",
"     ..    ..                                     ",
"      .  ..                                       ",
"      .  .                                        ",
"      .                                           ",
"      .                                           ",
"                                                  ",
"                                                  ",
"                                                  ",
"                                                  ",
"                                                  ",
"                                                  ",
"                                                  ",
"                                                  ",
"                                                  ",
"                                 ...........      ",
"                               ...         ....   ",
"                              ..              .   ",
"                                               .  ",
"                                               .  ",
"                                               .  ",
"                                              ..  ",
"                                  ..         ..   ",
"                                   .        ..    ",
"                     X             ..     ...     ",
"                     X              ..  ...       ",
"                     XX              . .. ...     ",
"                    XXX              ...    ...   ",
"                    XXX               .       ..  ",
"                     XXXXX            .         ..",
"                     XXXXX   ..       .          .",
"                      XXXX  XX   .......          ",
"                      XXXX  X         ..          ",
"                    . XXXXXXX         ...         ",
"                   .. XXXXXXX         . .         ",
"                  ..  XXXXXX          ...         ",
"                  .  XXXXXXXXXXX       ...        ",
"                  .  XXXXXXXXXXXXXX    .          ",
"                  .  XXXXXXXXXXXX      .          ",
"                  .  XXXXXXXXXXX       .          ",
"                  .  XX XXX.XXX        .          ",
"    .             .   X X  ....       ..          ",
"    .......       .     X  .  .........           ",
"    .     ...     .     X ..                      ",
"    .       ..    .     X .                       ",
"    .        ..   ...   ...                       ",
"    ..        ..    .....                         ",
"     .         .                                  ",
"     .         .                                  ",
"     .        ..                                  ",
"     .      ...                                   ",
"     ..    ..                                     ",
"      .  ..                                       ",
"      .  .                                        ",
"      .                                           ",
"      .                                           ",
"                                                  ",
"                                                  ",
"                                                  ",
"                                                  ",
"                                                  ",
"                                                  ",
"                                                  ",
"                                                  ",
"                                                  ",
"                                 ...........      ",
"                               ...         ....   ",
"                              ..              .   ",
"                                               .  ",
"                                               .  ",
"                                               .  ",
"                                              ..  ",
"                             XX   ..         ..   ",
"                             XXX   .        ..    ",
"                     X      XXX    ..     ...     ",
"                     X      XX      ..  ...       ",
"                     XX     XX   XX  . .. ...     ",
"                    XXX    XXX   XXX ...    ...   ",
"                    XXX   XXXX   XXX  .       ..  ",
"              X      XXXXXXXXX   XXXX .         ..",
"              XX     XXXXXXXXX.  XXXX .          .",
"              XXX     XXXXXXXX   XXXX...          ",
"                XXX   XXXXXXXX  XXXXX ..          ",
"                XXXXX XXXXXXXX  XXXXX ...         ",
"                  XXXXXXXXXXXX  XXXXX . .         ",
"                  XXXXXXXXXXXX XXXXX  ...         ",
"                  XXXXXXXXXXXXXXXXXX   ...        ",
"                  XXXXXXXXXXXXXXXXX    .          ",
"                  XX XXXXXXXXXXXX      .          ",
"                  XX XXXXXXXXXXXX      .          ",
"                 XX  XXXXXXXXXXXX      .          ",
"    .           XX.   XXXXXXXXXX      ..          ",
"    .......     XX.  XXXXXXXXXXXXXX....           ",
"    .     ...     . XXXXXXXXXXXXXXX               ",
"    .       ..    .XXXX XXX    XXXX               ",
"    .        ..   XXXXX ..XX    XXXXX             ",
"    ..        ..  XXXXX.. XXX   XXXXXX            ",
"     .         .XXXXXXX   XXXX   XXX              ",
"     .         .XXXXXX     XXX                    ",
"     .        ..XXXXXX                            ",
"     .      ...XXXXXX                             ",
"     ..    .. XXXXX                               ",
"      .  ..   XXX                                 ",
"      .  .                                        ",
"      .                                           ",
"      .                                           ",
"                                                  ",
"                                                  ",
"                                                  ",
"                                                  ",
"                                                  ",
"                                                  ",
"                                                  ",
"                                                  ",
"                                                  ",
"                                 ...........      ",
"                               ...         ....   ",
"                              ..              .   ",
"                                               .  ",
"                                               .  ",
"                  XX                           .  ",
"                  XXX                         ..  ",
"                 XXXX        XX   ..         ..   ",
"                 XXXX        XXX   .        ..    ",
"                 XXXXX      XXX    ..     ...     ",
"                 XXXXX      XX      ..  ...       ",
"                XXXXXXX     XX   XX  . .. ...     ",
"                XXXXXXX    XXX   XXX ...    ...   ",
"               XXXXXXXX   XXXX   XXX  .       ..  ",
"              XXXXXXXXXXXXXXXX   XXXX .         ..",
"              XXXXXXXXXXXXXXXX.  XXXX .          .",
"              XXXXXXXXXXXXXXXX   XXXX...          ",
"                XXXXXXXXXXXXXX  XXXXX ..          ",
"                XXXXXXXXXXXXXX  XXXXX ...         ",
"                XXXXXXXXXXXXXX  XXXXX . .         ",
"              XXXXXXXXXXXXXXXX XXXXX  ...         ",
"             XXXXXXXXXXXXXXXXXXXXXXX   ...        ",
"            XXXXXXXXXXXXXXXXXXXXXXX    .          ",
"           XXXXXXXXXXXXXXXXXXXXXX      .          ",
"           XXXXXXXXXXXXXXXXXXXXXX      .          ",
"           XXXXXXXXXXXXXXXXXXXXXX      .          ",
"    .      XXXXXXXXXXXXXXXXXXXXX      ..          ",
"    .......XXXXXXXXXXXXXXXXXXXXXXXX....           ",
"    .     ..XXXXXXXXXXXXXXXXXXXXXXX               ",
"    .       .. XXXXXXXXXXXXXXXXXXXX               ",
"    .        .. XXXXXXXXXXXXXXXXXXXXX             ",
"    ..        ..  XXXXXXXXXXXXXXXXXXXX            ",
"     .         .XXXXXXXXXXXXXXXXXXXX              ",
"     .         .XXXXXXXXXXXXXXXXXXX               ",
"     .        ..XXXXXXXXXXXXXXXXXX                ",
"     .      ...XXXXXX XXXXXXXXXXXX                ",
"     ..    .. XXXXX    XXXXXXXXXXX                ",
"      .  ..   XXX       XXXXXXXXXX                ",
"      .  .                XXXX                    ",
"      .                                           ",
"      .                                           ",
"                                                  ",
"                                                  ",
"                                                  ",
"                                                  ",
"                                                  ",
"                                                  ",
"                         XXX                      ",
"                          XXXXXX                  ",
"                          X     XXXXX             ",
"         XXXXX            X      ...XXXX....      ",
"X        X   XXXX         X    ...XXX  XX  ....   ",
"XX       X       XX       XXX .. XX    X XX   .   ",
"X X       X   XXXXXXXXX  XX X   XX     X  XX   .  ",
"X  X      XX  X   XXXXXXXXX X   X      X   X   .  ",
"XX  X      XX X   XXXX X  X X   X      X   X   .  ",
" X   X      X X  XXXXX  X X XXXXXXX    X   X  ..  ",
"  X   X     X X  XXXXX  X X XXXXXXXXXXXXX  X ..   ",
"  X    XX   X X  XXXXXX  XXXXXXXXXXXXXXXXX X..    ",
"   X     XX X X  XXXXXXXXXXXXXXXXXXX.XXX XXX.     ",
"   X      XX XX  XXXXX XXXXXXXXXXXX ..XX.XXXXX    ",
"X   X XX   X  X XXXXXXXXX XXXXXXXXX  . X. XX.XX   ",
"XX  X XXXX  X X XXXXXXXX  XXXXXXXXXX ..X  X X.X   ",
" XX  XX  XXX XXXXXXXXXX   XXXXXXXXXX  .X   XX X.  ",
" XXX XX     XXXXXXXXXXXXXXXXXXXXXXXXX .X   XXXX ..",
"  XXX XX   XXXXXXXXXXXXXXXXXXXXXXXXXX .X   X XX  .",
"   X XXXX  X XXXXXXXXXXXXXXXXXXXXXXXX..X   X XX   ",
"    XX XX XX XX XXXXXXXXXXXXXXXXXXXXX .X   X XX   ",
"     XXXXXX  X XXXXXXXXXXXXXXXXXXXXXX .X.  XXX    ",
"      XX XX  X XXXXXXXXXXXXXXXXXXXXXX .X. XXXX    ",
"  XXXXXXXXXXXXXXXXXXXXXXXXXXXXXXXXXX  .X. XX X    ",
"  XXXXXX X  XXXXXXXXXXXXXXXXXXXXXXXXXX XXXXXX     ",
"  XXXXXX X  XXXXXXXXXXXXXXXXXXXXXXX   XXXXXX      ",
"   XXXXXXX XXXXXXXXXXXXXXXXXXXXXX      XX XX      ",
"   XXXXXXX XXXXXXXXXXXXXXXXXXXXXXXX  XXX  X X     ",
"     XXXXX XXXXXXXXXXXXXXXXXXXXXX  XX XXXXX  X    ",
"    .  XXX XXXXXXXXXXXXXXXXXXXXXXXXX XX.XXX   XX  ",
"  XXXXXXXXXXXXXXXXXXXXXXXXXXXXXXXXX..XXXXX     XX ",
"  XXXXXXXXXXXXXXXXXXXXXXXXXXXXXXXXX  X XXX      X ",
"  XXXXXXXXXXXXXXXXXXXXXXXXXXXXXXXXXXXX XXXX     X ",
"   XXXXXXXXX .X XXXXXXXXXXXXXXXXXXXXXXXXX  XX   X ",
"    .XXX  XX XX.  XXXXXXXXXXXXXXXXXXXXXXXX  XX  X ",
"     . XX  XXX .XXXXXXXXXXXXXXXXXXXXX  XX XX X  X ",
"     .XXXXXXXX .XXXXXXXXXXXXXXXXXXX    XX  XXX XX ",
"     .XXXXXXXXX.XXXXXXXXXXXXXXXXXXX   X X    XXX  ",
"     .XXXXXXXXXXXXXXX XXXXXXXXXXXXXXXXX XX     X  ",
"     .XXXXXXXXXXXXXX   XXXXXXXXXXX  XX  XX     X  ",
"      . XXXXXXXXXXXXXX  XXXXXXXXXX  XXX X X   X   ",
"      .  .  XXXXXXXXXXXXX XXXX      X XXX X  XX   ",
"      .   XXX   XXXXXXXXXXXX      XX  XXXXXXX     ",
"      .  XXXX     XX X  X  XXXXXXXXXXXXX XX       ",
"        XXXXXXXX  XXXXXXXX  XXX      XXXX         ",
"        XXXXXXXXXXXX X  XXXX            X         ",
"        XXXXXXXXX XXXXX   X            XX         ",
"      XXXXXXXXXXXXX   XXXXXX        XXXX          ",
"      XXXXXXXXXX           XXXXXXXXX              ",
"          XXXX                                    "
};
